X:18
T:Farewell to Heb
C:Phil Cunningham
M:2/4
L:1/8
K:D
Bd/2>B/2 A/2<F/2B| B/2>A/2B/2<d/2 fe/2<d/2| ef/2>e/2 d/2<B/2e|
d/2>B/2A/2<F/2 EF/2<A/2| Bd/2>B/2 A/2<F/2B| B/2>A/2B/2<d/2 fe/2<d/2|
ef/2>e/2 d/2B/2A/2<F/2 E E :|
||EF/2<A/2 BB/2>d/2| B/2>A/2B/2<d/2 fe/2>d/2| ef/2<a/2 bf/2>b/2|
a/2>f/2e/2<d/2 fe/2<f/2| EF/2<A/2 BB/2>d/2| B/2>A/2B/2<d/2 fe/2>d/2|
ef/2>e/2 d/2B/2A/2<F/2 EE :|
